X:145
M:6/8
L:1/8
K:G
|:d2e|fed dcB|c2A c2d|edc cBA|B2G B2c|dBG gec|dBG e/f/ge|dBG A/B/cA|G3:|

